X:1
T:C minor Oliver Holden, 1800
T:Isaac Watts, 1719 (Psalm 25)  66. 86. (S. M.)
T:Dawning Light No copyright. Treble-Tenor-Bass from Plain Psalmody , 1800; Counter by B. C. Johnston, 2015.
%%score [ 1 2 3 4 ]
L:1/8
M:4/4
K:Eb
V:1 treble nm="Treble" snm="Tr."
V:2 treble nm="Counter" snm="C."
V:3 treble-8 nm="Tenor" snm="T."
V:4 bass nm="Bass" snm="B."
V:1
 G4 | G2 c2 =B2 d2 | c4 c4 | G2 G2 E2 F2 | G6 G2 | c2 G2 c2 d2 | e2 e2 d3 d | (c3 d e2) c2 | %8
w: 1.~From|the first dawn- ing|light 'Til|the dark eve- ning|rise, For|Thy sal- va- tion,|Lord, I wait With|ev- * * er|
w: 2.~Re-|mem- ber all Thy|grace, And|lead me in Thy|truth; For-|give the sins of|rip- er days And|fol- * * lies|
 (G>FGc =B2) B2 | c6 c2 | e2 e2 d2 d2 | c2 c2 =B3 B | (c>=Bc>d e2) c2 | G>FGedc =B2 | c8 |] %15
w: long- * * * * ing|eyes, For|Thy sal- va- tion,|Lord, I wait, with|ev- * * * * er|long- * * * * * ing|eyes.|
w: of~ * * * * my|youth, For-|give the sins of|rip- er days And|fol- * * * * lies|of~ * * * * * my|youth.|
V:2
 E4 | E2 G2 G2 G2 | G4 (E2 D2) | E2 E2 E2 D2 | (G3 F E2) E2 | E2 E2 E2 G2 | A2 A2 G3 G | %7
w: 3.~I|lift my soul to|God; My *|trust is in His|name;~ * * Let|not my foes that|seek my blood Still|
w: 4.~Sin,|and the powers of|hell, Per- *|suade me to des-|pair;~ * * Lord,|make me know Thy|cove- nant well, that|
 (A3 G G2) G2 | (=B2 G2) D4 | E6 G2 | G2 A2 =B2 G2 | E2 G2 G3 G | G4 E4 | (F2 E2) F4 | E8 |] %15
w: tri- * * umph|in~ * my|shame; Let|not my foes that|seek my blood Still|tr- umph|in~ * my|shame.|
w: I~~ * * may|'scape~ * the|snare; Lord,|make me know Thy|cove- nant well, That|I may|'scape~ * the|snare.|
V:3
 c4 | c2 e2 d2 =B2 | c4 G4 | c2 c2 G2 F2 | E6 E2 | G2 c2 G2 =B2 | c2 c2 =B3 B | c6 e2 | %8
w: 5.~The|Lord is just and|kind, The|meek shall learn His|ways,~~ And|eve- ry hum- ble|sin- ner find The|meth- ods|
w: 6.~For|His own good- ness'|sake, He|saves my soul from|shame:~~ He|par- dons, tho' my|guilt be great, Through|my Re-|
 (d2 c2) G4 | G6 e2 | c2 c2 =B2 B2 | G2 e2 d3 d | e4 g4 | (g2 e2) d4 | c8 |] %15
w: of~ * His|grace; And|eve- ry hum- ble|sin- ner find The|meth- ods|of~~ * His|grace.|
w: deem- * er's|name; He|par- dons, tho' my|guilt be great, Through|my Re-|deem- * er's|name.-|
V:4
 C,4 | C,2 C,2 G,2 G,2 | C,4 C,4 | C,2 C,2 C,2 D,2 | (E,3 F, G,2) E,2 | C,2 C,2 C,2 G,2 | %6
 C2 C2 G,3 G, | (E,3 D, C,2) C,2 | G,4 G,4 | C,6 C,2 | C2 C2 G,2 G,2 | C,2 C,2 G,3 G, | G,4 G,4 | %13
 F,4 G,4 | C,8 |] %15

